X:1365
T: Low Road to the City
T: Cumar na Cathrach
S: "Roche Collection of Traditional Irish Music" [III/23/75]
N: Version of "Castle Kelly"
L: 1/8
M: 4/4
R: reel
K: Ador
A2 cA ABcA | GEDE GEDE | A2 cA ABcd |1 efec dcAG :|2\
efec dcde ||
agec d2 cd | edcA G3A | agec d2 cd | eaab aged |
agec d2 cd | edcA G3G | A2 cA ABcd | efec dcAG ||
